X:1
T:Acorn Hill Breakdown
C:transcribed from Scott Markx Nov. 16, 2019
L:1/8
M:4/4
I:linebreak $
K:D
V:1 treble
V:1
"D" fafe dAde | fdec d2 A2 | F A2 B A2 F2 |"A" E3 F E2 FE |$
"D" DEFG A(F F2) |"G" GABd edcB | "A" ABcd e2 d2 |"D" fdec d4 :|$
"D" fafe dd e2 | f2 a2 b2 a2 | f a2 f d2 e2 |"Em" [Be]4 [Be]4 |$
 "G" [Bg]3 a gfed |"A" [ce]6 cB | ABcd fdec |"D" d3 e d4 :|
